Sweet-Rainbow/icons/geany.svg

<?xml version="1.0" encoding="UTF-8" standalone="no"?>
<!-- Generator: Gravit.io -->

<svg
   xmlns:dc="http://purl.org/dc/elements/1.1/"
   xmlns:cc="http://creativecommons.org/ns#"
   xmlns:rdf="http://www.w3.org/1999/02/22-rdf-syntax-ns#"
   xmlns:svg="http://www.w3.org/2000/svg"
   xmlns="http://www.w3.org/2000/svg"
   xmlns:sodipodi="http://sodipodi.sourceforge.net/DTD/sodipodi-0.dtd"
   xmlns:inkscape="http://www.inkscape.org/namespaces/inkscape"
   style="isolation:isolate"
   viewBox="0 0 36 36"
   width="48"
   height="48"
   version="1.1"
   id="svg28"
   sodipodi:docname="geany.svg"
   inkscape:version="0.92.4 (5da689c313, 2019-01-14)">
  <metadata
     id="metadata34">
    <rdf:RDF>
      <cc:Work
         rdf:about="">
        <dc:format>image/svg+xml</dc:format>
        <dc:type
           rdf:resource="http://purl.org/dc/dcmitype/StillImage" />
        <dc:title></dc:title>
      </cc:Work>
    </rdf:RDF>
  </metadata>
  <defs
     id="defs32" />
  <sodipodi:namedview
     pagecolor="#ffffff"
     bordercolor="#666666"
     borderopacity="1"
     objecttolerance="10"
     gridtolerance="10"
     guidetolerance="10"
     inkscape:pageopacity="0"
     inkscape:pageshadow="2"
     inkscape:window-width="640"
     inkscape:window-height="480"
     id="namedview30"
     showgrid="false"
     inkscape:zoom="29.365243"
     inkscape:cx="25.325443"
     inkscape:cy="32"
     inkscape:current-layer="svg28"
     units="px" />
  <linearGradient
     id="_lgradient_15"
     x1="0"
     y1="0.5"
     x2="1"
     y2="0.5"
     gradientTransform="matrix(46.987,0,0,30.8,0.507,8.6)"
     gradientUnits="userSpaceOnUse">
    <stop
       offset="0%"
       stop-opacity="1"
       style="stop-color:rgb(247,242,6)"
       id="stop2" />
    <stop
       offset="97.82608695652173%"
       stop-opacity="1"
       style="stop-color:rgb(255,187,36)"
       id="stop4" />
  </linearGradient>
  <linearGradient
     id="_lgradient_16"
     x1="0.0063853231"
     y1="29.49073"
     x2="39.06303"
     y2="29.49073"
     gradientTransform="scale(1.2285785,0.81394881)"
     gradientUnits="userSpaceOnUse">
    <stop
       offset="0%"
       stop-opacity="1"
       style="stop-color:rgb(247,242,6)"
       id="stop7" />
    <stop
       offset="97.82608695652173%"
       stop-opacity="1"
       style="stop-color:rgb(255,187,36)"
       id="stop9" />
  </linearGradient>
  <linearGradient
     id="_lgradient_17"
     x1="0"
     y1="0.5"
     x2="0.90748805"
     y2="0.92007786"
     gradientTransform="matrix(17,0,0,7.933,21,20)"
     gradientUnits="userSpaceOnUse">
    <stop
       offset="0%"
       stop-opacity="1"
       style="stop-color:rgb(255,65,108)"
       id="stop14" />
    <stop
       offset="84.34782608695653%"
       stop-opacity="1"
       style="stop-color:rgb(255,75,43)"
       id="stop16" />
  </linearGradient>
  <linearGradient
     id="_lgradient_18"
     x1="0"
     y1="0.5"
     x2="1"
     y2="0.5"
     gradientTransform="matrix(44,0,0,46,2,1)"
     gradientUnits="userSpaceOnUse">
    <stop
       offset="0%"
       stop-opacity="1"
       style="stop-color:rgb(247,242,6)"
       id="stop21" />
    <stop
       offset="97.82608695652173%"
       stop-opacity="1"
       style="stop-color:rgb(255,187,36)"
       id="stop23" />
  </linearGradient>
  <g
     id="g844"
     transform="matrix(0.75024766,0,0,0.75024766,-0.00588565,-0.00594384)">
    <path
       id="path12"
       stroke-miterlimit="4"
       d="m 25.484,13.882 c 0.286,-1.578 1.278,-2.571 2.453,-3.041 0.038,-0.011 0.074,-0.026 0.11,-0.041 0.508,-0.188 1.047,-0.28 1.576,-0.28 0.541,0 1.061,0.094 1.535,0.274 0.012,0.005 0.024,0.01 0.036,0.014 0.454,0.177 0.865,0.431 1.214,0.758 0.62,0.58 1.019,1.369 1.176,2.316 z m 8.912,23.601 H 23.883 v -3.308 h 10.513 z m 7.87,-10.497 c 0.335,-1.403 0.489,-2.963 0.449,-4.639 -0.025,-1.021 -0.183,-1.983 -0.454,-2.867 1.867,0.232 3.316,1.826 3.316,3.753 0,1.926 -1.447,3.519 -3.311,3.753 z M 41.792,17.533 H 41.414 C 40.142,15.371 38.035,13.997 35.521,13.89 35.341,12.386 34.728,11.111 33.718,10.166 33.352,9.824 32.943,9.536 32.501,9.302 30.437,8.355 28.524,8.377 26.699,9.304 c -0.461,0.239 -0.891,0.534 -1.277,0.885 -0.768,0.699 -1.664,1.893 -1.886,3.762 -1.872,0.283 -3.437,1.425 -3.963,2.971 -0.308,0.915 -0.814,1.5 -1.545,1.788 -1.295,0.51 -3.018,0.011 -4.101,-0.572 L 10.594,16.347 C 10.038,16.048 9.649,15.818 9.337,15.633 8.059,14.877 7.86,14.859 5.63,14.859 H 1.465 c -0.434,0 -0.814,0.292 -0.926,0.711 -0.112,0.419 0.072,0.861 0.448,1.078 l 3.277,1.887 4.767,4.61 c 0.38,0.369 0.987,0.358 1.355,-0.022 0.368,-0.38 0.358,-0.987 -0.023,-1.355 L 5.511,17.075 C 5.455,17.02 5.392,16.972 5.323,16.933 L 5.05,16.776 h 0.58 c 0.972,0 1.508,0 1.818,0.061 0.231,0.046 0.392,0.137 0.913,0.445 0.309,0.184 0.734,0.435 1.325,0.753 l 3.333,1.791 c 1.513,0.815 3.808,1.417 5.712,0.667 1.252,-0.494 2.172,-1.517 2.657,-2.956 0.343,-1.007 1.627,-1.739 3.054,-1.739 h 10.763 c 3.149,0 5.501,2.774 5.594,6.595 0.046,1.957 -0.193,3.717 -0.692,5.194 -0.021,0.047 -0.038,0.097 -0.051,0.149 -0.416,1.175 -1,2.164 -1.739,2.92 -1.038,1.064 -2.313,1.603 -3.791,1.603 H 23.75 c -2.536,0 -4.05,-1.464 -5.968,-3.316 l -1.203,-1.129 c -0.38,-0.368 -0.987,-0.358 -1.355,0.023 -0.368,0.38 -0.358,0.987 0.023,1.355 l 1.203,1.129 c 1.654,1.597 3.233,3.122 5.517,3.655 v 4.466 c 0,0.529 0.429,0.958 0.958,0.958 h 12.429 c 0.53,0 0.959,-0.429 0.959,-0.958 v -4.483 c 1.269,-0.317 2.416,-0.981 3.375,-1.963 0.808,-0.828 1.464,-1.862 1.956,-3.062 h 0.148 c 3.144,0 5.701,-2.558 5.701,-5.701 0,-3.143 -2.557,-5.7 -5.701,-5.7 z m -29.539,8.45 c 0,-0.295 0.24,-0.534 0.534,-0.534 0.295,0 0.534,0.239 0.534,0.534 0,0.294 -0.239,0.533 -0.534,0.533 -0.294,0 -0.534,-0.239 -0.534,-0.533 z"
       style="vector-effect:non-scaling-stroke;fill:url(#_lgradient_15);fill-rule:evenodd;stroke:url(#_lgradient_16);stroke-width:0.99800003;stroke-linecap:butt;stroke-linejoin:miter;stroke-miterlimit:4"
       inkscape:connector-curvature="0" />
    <path
       id="path19"
       d="M 23.833,22.267 21,25.1 23.833,27.933 26.667,25.1 Z M 29.5,20 l -2.833,2.833 2.833,2.834 2.833,-2.834 z m 5.667,2.267 -2.834,2.833 2.834,2.833 L 38,25.1 Z"
       style="fill:url(#_lgradient_17);fill-rule:evenodd"
       inkscape:connector-curvature="0" />
    <path
       id="path26"
       d="m 6,9 v 0 c 0,1.104 -0.896,2 -2,2 v 0 C 2.896,11 2,10.104 2,9 V 9 6 C 2,3.24 4.24,1 7,1 h 34 c 2.76,0 5,2.24 5,5 v 5 0 c 0,1.104 -0.896,2 -2,2 v 0 c -1.104,0 -2,-0.896 -2,-2 V 11 8 C 42,6.344 40.656,5 39,5 H 9 C 7.344,5 6,6.344 6,8 Z m 36,26 v 0 c 0,-1.104 0.896,-2 2,-2 v 0 c 1.104,0 2,0.896 2,2 v 0 7 c 0,2.76 -2.24,5 -5,5 H 7 C 4.24,47 2,44.76 2,42 v -13 0 c 0,-1.104 0.896,-2 2,-2 v 0 c 1.104,0 2,0.896 2,2 v 0 11 c 0,1.656 1.344,3 3,3 h 30 c 1.656,0 3,-1.344 3,-3 z"
       style="fill:url(#_lgradient_18);fill-rule:evenodd"
       inkscape:connector-curvature="0" />
  </g>
</svg>

<?xml version="1.0" encoding="UTF-8" standalone="no"?><!-- Generator: Gravit.io --><svg xmlns="http://www.w3.org/2000/svg" xmlns:xlink="http://www.w3.org/1999/xlink" style="isolation:isolate" viewBox="0 0 48 48" width="48pt" height="48pt"><linearGradient id="_lgradient_15" x1="0" y1="0.5" x2="1" y2="0.5" gradientTransform="matrix(46.987,0,0,30.8,0.507,8.6)" gradientUnits="userSpaceOnUse"><stop offset="0%" stop-opacity="1" style="stop-color:rgb(247,242,6)"/><stop offset="97.82608695652173%" stop-opacity="1" style="stop-color:rgb(255,187,36)"/></linearGradient><linearGradient id="_lgradient_16" x1="0" y1="0.5" x2="1" y2="0.5"><stop offset="0%" stop-opacity="1" style="stop-color:rgb(247,242,6)"/><stop offset="97.82608695652173%" stop-opacity="1" style="stop-color:rgb(255,187,36)"/></linearGradient><path d=" M 25.484 13.882 C 25.77 12.304 26.762 11.311 27.937 10.841 C 27.975 10.83 28.011 10.815 28.047 10.8 C 28.555 10.612 29.094 10.52 29.623 10.52 C 30.164 10.52 30.684 10.614 31.158 10.794 C 31.17 10.799 31.182 10.804 31.194 10.808 C 31.648 10.985 32.059 11.239 32.408 11.566 C 33.028 12.146 33.427 12.935 33.584 13.882 L 25.484 13.882 L 25.484 13.882 L 25.484 13.882 Z  M 34.396 37.483 L 23.883 37.483 L 23.883 34.175 L 34.396 34.175 L 34.396 37.483 L 34.396 37.483 L 34.396 37.483 Z  M 42.266 26.986 C 42.601 25.583 42.755 24.023 42.715 22.347 C 42.69 21.326 42.532 20.364 42.261 19.48 C 44.128 19.712 45.577 21.306 45.577 23.233 C 45.577 25.159 44.13 26.752 42.266 26.986 L 42.266 26.986 Z  M 41.792 17.533 L 41.414 17.533 C 40.142 15.371 38.035 13.997 35.521 13.89 C 35.341 12.386 34.728 11.111 33.718 10.166 C 33.352 9.824 32.943 9.536 32.501 9.302 C 30.437 8.355 28.524 8.377 26.699 9.304 C 26.238 9.543 25.808 9.838 25.422 10.189 C 24.654 10.888 23.758 12.082 23.536 13.951 C 21.664 14.234 20.099 15.376 19.573 16.922 C 19.265 17.837 18.759 18.422 18.028 18.71 C 16.733 19.22 15.01 18.721 13.927 18.138 L 10.594 16.347 C 10.038 16.048 9.649 15.818 9.337 15.633 C 8.059 14.877 7.86 14.859 5.63 14.859 L 1.465 14.859 C 1.031 14.859 0.651 15.151 0.539 15.57 C 0.427 15.989 0.611 16.431 0.987 16.648 L 4.264 18.535 L 9.031 23.145 C 9.411 23.514 10.018 23.503 10.386 23.123 C 10.754 22.743 10.744 22.136 10.363 21.768 L 5.511 17.075 C 5.455 17.02 5.392 16.972 5.323 16.933 L 5.05 16.776 L 5.63 16.776 C 6.602 16.776 7.138 16.776 7.448 16.837 C 7.679 16.883 7.84 16.974 8.361 17.282 C 8.67 17.466 9.095 17.717 9.686 18.035 L 13.019 19.826 C 14.532 20.641 16.827 21.243 18.731 20.493 C 19.983 19.999 20.903 18.976 21.388 17.537 C 21.731 16.53 23.015 15.798 24.442 15.798 L 35.205 15.798 C 38.354 15.798 40.706 18.572 40.799 22.393 C 40.845 24.35 40.606 26.11 40.107 27.587 C 40.086 27.634 40.069 27.684 40.056 27.736 C 39.64 28.911 39.056 29.9 38.317 30.656 C 37.279 31.72 36.004 32.259 34.526 32.259 L 23.75 32.259 C 21.214 32.259 19.7 30.795 17.782 28.943 L 16.579 27.814 C 16.199 27.446 15.592 27.456 15.224 27.837 C 14.856 28.217 14.866 28.824 15.247 29.192 L 16.45 30.321 C 18.104 31.918 19.683 33.443 21.967 33.976 L 21.967 38.442 C 21.967 38.971 22.396 39.4 22.925 39.4 L 35.354 39.4 C 35.884 39.4 36.313 38.971 36.313 38.442 L 36.313 33.959 C 37.582 33.642 38.729 32.978 39.688 31.996 C 40.496 31.168 41.152 30.134 41.644 28.934 L 41.792 28.934 C 44.936 28.934 47.493 26.376 47.493 23.233 C 47.493 20.09 44.936 17.533 41.792 17.533 L 41.792 17.533 L 41.792 17.533 Z  M 12.253 25.983 C 12.253 25.688 12.493 25.449 12.787 25.449 C 13.082 25.449 13.321 25.688 13.321 25.983 C 13.321 26.277 13.082 26.516 12.787 26.516 C 12.493 26.516 12.253 26.277 12.253 25.983 Z " fill-rule="evenodd" fill="url(#_lgradient_15)" vector-effect="non-scaling-stroke" stroke-width="0.998" stroke="url(#_lgradient_16)" stroke-linejoin="miter" stroke-linecap="butt" stroke-miterlimit="4"/><linearGradient id="_lgradient_17" x1="0" y1="0.5" x2="0.9074880558539661" y2="0.9200778838291643" gradientTransform="matrix(17,0,0,7.933,21,20)" gradientUnits="userSpaceOnUse"><stop offset="0%" stop-opacity="1" style="stop-color:rgb(255,65,108)"/><stop offset="84.34782608695653%" stop-opacity="1" style="stop-color:rgb(255,75,43)"/></linearGradient><path d=" M 23.833 22.267 L 21 25.1 L 23.833 27.933 L 26.667 25.1 L 23.833 22.267 L 23.833 22.267 Z  M 29.5 20 L 26.667 22.833 L 29.5 25.667 L 32.333 22.833 L 29.5 20 L 29.5 20 Z  M 35.167 22.267 L 32.333 25.1 L 35.167 27.933 L 38 25.1 L 35.167 22.267 Z " fill-rule="evenodd" fill="url(#_lgradient_17)"/><linearGradient id="_lgradient_18" x1="0" y1="0.5" x2="1" y2="0.5" gradientTransform="matrix(44,0,0,46,2,1)" gradientUnits="userSpaceOnUse"><stop offset="0%" stop-opacity="1" style="stop-color:rgb(247,242,6)"/><stop offset="97.82608695652173%" stop-opacity="1" style="stop-color:rgb(255,187,36)"/></linearGradient><path d=" M 6 9 L 6 9 C 6 10.104 5.104 11 4 11 L 4 11 C 2.896 11 2 10.104 2 9 L 2 9 L 2 6 C 2 3.24 4.24 1 7 1 L 41 1 C 43.76 1 46 3.24 46 6 L 46 11 L 46 11 C 46 12.104 45.104 13 44 13 L 44 13 C 42.896 13 42 12.104 42 11 L 42 11 L 42 8 C 42 6.344 40.656 5 39 5 L 9 5 C 7.344 5 6 6.344 6 8 L 6 9 Z  M 42 35 L 42 35 C 42 33.896 42.896 33 44 33 L 44 33 C 45.104 33 46 33.896 46 35 L 46 35 L 46 42 C 46 44.76 43.76 47 41 47 L 7 47 C 4.24 47 2 44.76 2 42 L 2 29 L 2 29 C 2 27.896 2.896 27 4 27 L 4 27 C 5.104 27 6 27.896 6 29 L 6 29 L 6 40 C 6 41.656 7.344 43 9 43 L 39 43 C 40.656 43 42 41.656 42 40 L 42 35 Z " fill-rule="evenodd" fill="url(#_lgradient_18)"/></svg>
